X: 31
T:Isle of Wight Hornpipe. FK.31
M:C
L:1/8
Q:160
C:"MS39 p 75"
S:Kidson's H'pipe MS,early 20thC.
R:Hornpipe
O:England
A:Leeds
N:
Z:vmp.John Bagnall
K:G
GA | BABG EFGE | D2 B,2 B,2 GA | BABG EFGA | B2 A2 A2 GA |!
 BABG EFGE | DEDC B,2 D2 | EDEF GFGA B2 G2 G2 :|:!
Bc | dedc Bdef | g2 d2 d2 ef | gfed cBAG | B2 A2 A2 GA |!
 BABG EFGF | DEDC B,2 D2 | EDEF GFGA B2 G2 G2 :|]
